localPackages/DesignSystem/Sources/DesignSystem/Resources/Assets.xcassets/IconSet/ic-key.imageset/ic-key.svg

<svg width="24" height="24" viewBox="0 0 24 24" fill="none" xmlns="http://www.w3.org/2000/svg">
<g id="ic-key">
<path id="Icon" fill-rule="evenodd" clip-rule="evenodd" d="M11.0228 4.71932C13.3031 2.43895 17.0003 2.43895 19.2807 4.71932C21.561 6.99968 21.561 10.6969 19.2807 12.9772C17.6603 14.5976 15.3236 15.0677 13.2864 14.3831L12.8432 14.2342L12.5126 14.5648L11.7309 15.3465H9.97117C9.77106 15.3465 9.57915 15.426 9.43765 15.5675C9.29615 15.709 9.21665 15.9009 9.21665 16.101L9.21665 17.4187H7.89896C7.48225 17.4187 7.14444 17.7565 7.14444 18.1733V19.491L4.50904 19.491V16.4136L9.43519 11.4874L9.76583 11.1568L9.61688 10.7136C8.93232 8.67644 9.40236 6.33971 11.0228 4.71932ZM20.3477 3.65226C17.4781 0.78258 12.8254 0.78258 9.9557 3.65226C8.03486 5.57311 7.4007 8.29199 8.04969 10.7388L3.43558 15.3529C3.15668 15.6318 3 16.0101 3 16.4045V20.2455C3 20.4456 3.07949 20.6375 3.22099 20.779C3.36249 20.9205 3.55441 21 3.75452 21H7.16632C7.98766 21 8.65348 20.3342 8.65348 19.5128V18.9278H9.97118C10.1713 18.9278 10.3632 18.8483 10.5047 18.7068C10.6462 18.5653 10.7257 18.3734 10.7257 18.1733L10.7257 16.8556H12.0434C12.2435 16.8556 12.4354 16.7761 12.5769 16.6346L13.2612 15.9503C15.708 16.5993 18.4269 15.9651 20.3477 14.0443C23.2174 11.1746 23.2174 6.52194 20.3477 3.65226ZM16.6645 8.85449C17.5032 8.85449 18.1832 8.17455 18.1832 7.3358C18.1832 6.49705 17.5032 5.81711 16.6645 5.81711C15.8257 5.81711 15.1458 6.49705 15.1458 7.3358C15.1458 8.17455 15.8257 8.85449 16.6645 8.85449Z" fill="#0F0F0F"/>
</g>
</svg>

<svg xmlns="http://www.w3.org/2000/svg" width="24" height="24" viewBox="0 0 24 24">
  <g class="ic-key">
    <path fill-rule="evenodd" d="M11.023 4.72a5.84 5.84 0 1 1 2.263 9.663l-.443-.149-.33.33-.782.783H9.97a.755.755 0 0 0-.754.754v1.318H7.899a.755.755 0 0 0-.755.754v1.318H4.51v-3.077l4.926-4.927.33-.33-.148-.443a5.84 5.84 0 0 1 1.406-5.995Zm9.325-1.068A7.348 7.348 0 0 0 8.05 10.74l-4.614 4.614A1.487 1.487 0 0 0 3 16.404v3.841a.754.754 0 0 0 .755.755h3.411c.822 0 1.487-.666 1.487-1.487v-.585h1.318a.754.754 0 0 0 .755-.755v-1.317h1.317c.2 0 .392-.08.534-.221l.684-.685a7.348 7.348 0 0 0 7.086-12.298Zm-3.683 5.202a1.519 1.519 0 1 0 0-3.037 1.519 1.519 0 0 0 0 3.037Z" class="Icon"/>
  </g>
</svg>
